X:194
T: SAGT MIR O SCHOENSTE SCHAEFRIN MEIN
N: Z0193
O: Europa, Mitteleuropa, Deutschland
R: Romanze
M: 6/8
L: 1/8
K: C
G | C2EC2E | C2ED2
F | E2DC2D | G,3-G,2
G | C2EC2E | C2ED2
F | E2DC2D | G,3-G,2
C | F2FF2F | E2DC2
C | F2FF2F | E2DC2
E | C2EC2E | C3-C2

